X: 1189
T: The Avonmore
M:C|
L:1/8
R:Reel
B:O'Neill's 1189
N:Collected by F. O'Neill
Z:Transcribed by Trish O'Neil
K:G
(dc) |: BG (3GGGG2G2 | BGBd gdec | BG (3GGGG2(cB) | AGFG ABcA |
BG (3GGGG2G2 | BGBdg2(fg) | afge fdec | AGFG ABcA ||
Bd (3dddd2(dc) | BGBd gdec | Bd (3dddd2(cB) | AGFG ABcA |
Bd (3dddd2(dc) | BGBdg2(fg) | afge fdec | AGFG ABcA :|


